packages/icons/src/SVG/forward-15.svg

<svg width="12" height="12" viewBox="0 0 12 12" >
<path d="M4.02114 2C1.77224 2 -0.0394977 3.83469 0.000654749 6.07142C0.039806 8.25237 1.82832 10 4.02114 10H8V12L12 9.5L8 7V9H4.02114C2.37653 9 1.03514 7.68928 1.00578 6.05356C0.975662 4.37602 2.33447 3 4.02114 3V2Z" />
<path d="M7.17627 5.25H6.36963V2.03369C6.36963 1.9266 6.37077 1.8195 6.37305 1.7124C6.37533 1.60531 6.3776 1.50049 6.37988 1.39795C6.38444 1.29541 6.39014 1.19743 6.39697 1.104C6.34912 1.15641 6.28988 1.21338 6.21924 1.2749C6.15088 1.33643 6.07796 1.40023 6.00049 1.46631L5.42627 1.92432L5.02295 1.41504L6.50635 0.25293H7.17627V5.25Z" />
<path d="M10.019 2.12598C10.3403 2.12598 10.6229 2.18408 10.8667 2.30029C11.1128 2.41423 11.3042 2.58284 11.4409 2.80615C11.5776 3.02718 11.646 3.29834 11.646 3.61963C11.646 3.97054 11.5719 4.2736 11.4238 4.52881C11.2757 4.78174 11.0581 4.97656 10.771 5.11328C10.4839 5.25 10.1341 5.31836 9.72168 5.31836C9.45964 5.31836 9.21468 5.29557 8.98682 5.25C8.76123 5.20443 8.56641 5.13607 8.40234 5.04492V4.32031C8.57324 4.41602 8.77832 4.49463 9.01758 4.55615C9.25684 4.6154 9.48584 4.64502 9.70459 4.64502C9.93701 4.64502 10.1364 4.61084 10.3027 4.54248C10.4691 4.47412 10.5967 4.3693 10.6855 4.22803C10.7767 4.08675 10.8223 3.90788 10.8223 3.69141C10.8223 3.4043 10.73 3.18327 10.5454 3.02832C10.3631 2.87109 10.0771 2.79248 9.6875 2.79248C9.55078 2.79248 9.40495 2.80501 9.25 2.83008C9.09733 2.85286 8.96973 2.87793 8.86719 2.90527L8.51514 2.69678L8.70312 0.25293H11.3008V0.960449H9.41064L9.30127 2.20459C9.3833 2.18636 9.48128 2.16927 9.59521 2.15332C9.70915 2.13509 9.85042 2.12598 10.019 2.12598Z" />
</svg>

<!-- Generated by IcoMoon.io -->
<svg version="1.1" xmlns="http://www.w3.org/2000/svg" width="12" height="12" viewBox="0 0 12 12">
<title>forward-15</title>
<path fill="#4c505b" d="M4.021 2c-2.249 0-4.061 1.835-4.020 4.071 0.039 2.181 1.828 3.929 4.020 3.929h3.979v2l4-2.5-4-2.5v2h-3.979c-1.645 0-2.986-1.311-3.015-2.946-0.030-1.678 1.329-3.054 3.015-3.054v-1z"></path>
<path fill="#4c505b" d="M7.176 5.25h-0.807v-3.216c0-0.107 0.001-0.214 0.003-0.321s0.005-0.212 0.007-0.314c0.005-0.103 0.010-0.201 0.017-0.294-0.048 0.052-0.107 0.109-0.178 0.171-0.068 0.062-0.141 0.125-0.219 0.191l-0.574 0.458-0.403-0.509 1.483-1.162h0.67v4.997z"></path>
<path fill="#4c505b" d="M10.019 2.126c0.321 0 0.604 0.058 0.848 0.174 0.246 0.114 0.437 0.283 0.574 0.506 0.137 0.221 0.205 0.492 0.205 0.813 0 0.351-0.074 0.654-0.222 0.909-0.148 0.253-0.366 0.448-0.653 0.584s-0.637 0.205-1.049 0.205c-0.262 0-0.507-0.023-0.735-0.068-0.226-0.046-0.42-0.114-0.584-0.205v-0.725c0.171 0.096 0.376 0.174 0.615 0.236 0.239 0.059 0.468 0.089 0.687 0.089 0.232 0 0.432-0.034 0.598-0.103s0.294-0.173 0.383-0.314c0.091-0.141 0.137-0.32 0.137-0.537 0-0.287-0.092-0.508-0.277-0.663-0.182-0.157-0.468-0.236-0.858-0.236-0.137 0-0.283 0.013-0.437 0.038-0.153 0.023-0.28 0.048-0.383 0.075l-0.352-0.208 0.188-2.444h2.598v0.708h-1.89l-0.109 1.244c0.082-0.018 0.18-0.035 0.294-0.051 0.114-0.018 0.255-0.027 0.424-0.027z"></path>
</svg>
